public/obrigado.svg

<svg width="213" height="53" fill="none" xmlns="http://www.w3.org/2000/svg"><path d="M25.328 28.912a.771.771 0 00-.576-.224c-.224 0-.448.064-.608.224-3.84 3.84-9.28 5.6-14.624 4.704-.416-.096-.704-.48-.64-.896.256-1.536.128-3.104-.768-3.616-.576-.32-1.44-.352-2.464 1.376a2.63 2.63 0 00-.384 1.952c.16.672.576 1.28 1.152 1.632.352.288-.064.768-.288.992-.608.736-1.664.864-2.4.288a1.852 1.852 0 01-.992-2.368c.416-1.696 2.08-3.168 2.688-3.168a.847.847 0 00.832-.832c.032-.448-.352-.832-.8-.864h-.032c-1.6 0-3.744 2.176-4.32 4.448a3.511 3.511 0 001.824 4.256c.608.352 1.28.512 1.984.544a3.656 3.656 0 003.168-2.176.355.355 0 01.352-.128c4.064 1.216 11.488.448 16.896-4.928a.874.874 0 00.256-.608.874.874 0 00-.256-.608zM7.216 32.56a.895.895 0 01-.128-1.216c.096-.16.16-.256.224-.352.032.512 0 1.056-.096 1.568zM48.413 30a.874.874 0 00-.608-.256.771.771 0 00-.576.224c-4.736 4.544-11.648 3.008-16.288.416a2.71 2.71 0 00-.48-.96c-.608-.704-1.6-.96-2.432-.576a.797.797 0 00-.544.672c-.064.288.064.608.32.8.256.192.544.416.864.608.544.352.832.96.736 1.6-.128.832-.384 1.632-.832 2.368-.224.416-.544.768-.928 1.088a1.802 1.802 0 01-1.792.224c-.608-.224-1.024-.768-1.152-1.408a12.094 12.094 0 01-.032-2.848c.032 0 .064-.032.096-.064 2.816-2.496 12.064-16.704 10.336-20.352a1.96 1.96 0 00-2.24-1.024c-3.392.544-8.512 12.64-9.632 19.616-.704 4.288-.16 6.944 1.632 7.936l.32.096c.288.064.576.096.864.096 1.664-.064 3.2-.992 3.968-2.496a7.523 7.523 0 00.864-2.016c.064-.32.32-.608.608-.736.32-.16.672-.16.96-.032 4.96 2.08 11.296 2.656 15.936-1.792a.86.86 0 00.256-.576c0-.224-.064-.448-.224-.608zM33.117 12.176h.224c.192 0 .224.064.256.064.288.608-.128 3.2-3.392 9.056a74.328 74.328 0 01-4.32 6.688c-.064.096-.192.128-.32.064-.096-.064-.16-.192-.128-.288 1.824-7.392 6.048-15.328 7.68-15.584zm41.717 17.408a.801.801 0 00-.576-.256.874.874 0 00-.608.256c-5.536 5.408-15.36 6.56-17.472 5.312-1.44-.832-1.28-1.824-.256-3.808.48-.96 1.024-2.08.096-2.752-.864-.64-1.696-.224-2.432.16a6.937 6.937 0 01-3.488.928c-.288 0-.544-.512-.48-.704 1.792-3.936.992-4.672.704-4.96-.48-.48-1.216-.448-2.112.096-1.472 1.056-2.112 2.944-1.6 4.704.128.48.352.928.672 1.312a.818.818 0 00.448.832c.192.096.416.096.64.032a4.15 4.15 0 001.76.384c1.312.032 2.592-.256 3.744-.896.448-.224.608-.032.544.096-.768 1.504-2.144 4.256.928 6.048a6.986 6.986 0 003.52.64c4.48 0 11.52-1.92 15.936-6.24a.75.75 0 00.256-.576.73.73 0 00-.224-.608zm-26.656-1.76a2.553 2.553 0 01.864-2.496 18.12 18.12 0 01-.864 2.528v-.032zm46.058 1.536c-.352-.32-.864-.32-1.184.032-.128.096-10.496 10.656-17.376 5.632-2.112-1.536-.064-5.536-.032-5.568a.853.853 0 00-.384-1.12c-.416-.192-.896-.064-1.12.352-.128.192-2.72 5.28.544 7.68a8.578 8.578 0 005.248 1.696c6.912 0 13.92-7.136 14.304-7.52a.801.801 0 00.256-.576c-.032-.224-.096-.448-.256-.608zm-20.448-2.528a.852.852 0 00.384-.096 7.87 7.87 0 002.048-1.504.85.85 0 00-.032-1.184c-.352-.32-.864-.32-1.184.032a6.66 6.66 0 01-1.632 1.184.838.838 0 00-.416.928c.096.384.448.64.832.64zm41.64 2.752c-.352-.32-.896-.288-1.184.064-2.528 2.624-6.624 2.88-9.44.608-.672-.48-1.6-.448-2.208.128-.352.32-.736.672-1.12 1.088-1.216 1.376-1.44.224-1.44-.544 0-.672-.128-1.376-.352-2.016a.872.872 0 00-.8-.544c-.352.032-.64.224-.768.576-.896 2.496-2.816 6.144-4.16 6.4-.096.032-.352.064-.736-.352a3.58 3.58 0 01.352-2.496 7.209 7.209 0 016.08-4.672.853.853 0 00.8-.896.853.853 0 00-.896-.8 8.992 8.992 0 00-7.584 5.792c-.544 1.408-.864 3.264 0 4.192.576.704 1.44 1.024 2.304.864 1.6-.32 3.04-2.432 4.064-4.352a43.89 43.89 0 01-.288 2.528 1.083 1.083 0 01-.192.48c-3.744 4.736-7.136 10.464-7.2 14.08-.096.96.256 1.92.896 2.624.32.32.704.48 1.12.48.352 0 .704-.096.992-.288 2.112-1.408 4.8-9.632 5.856-16.16.032-.128.096-.256.192-.384a51.794 51.794 0 013.552-3.936.827.827 0 011.056-.096 8.706 8.706 0 0011.136-1.184c.288-.352.288-.864-.032-1.184zM94.116 49.136c-.736 1.472-.992 2.112-1.376 1.984-.384-.096-.416-.736-.384-1.376.064-2.464 4.352-10.816 4.96-10.56.608.256-1.984 7.424-3.2 9.952zm46.105-18.88a.86.86 0 00-1.216-.064c-.096.096-9.6 8.64-15.488 4.768-2.336-1.536-2.912-5.248-2.912-5.28-.032-.384-.32-.672-.704-.736-.352-.032-.736.16-.896.48-1.504 3.328-4.16 7.552-4.896 7.072-.064 0-.192-.128-.288-.352-.384-1.056-.256-2.208.288-3.2a9.307 9.307 0 016.144-4.96.849.849 0 00.608-.576c.096-.288 0-.608-.192-.832-.224-.192-.512-.288-.8-.224-3.2.768-5.856 2.944-7.296 5.888a5.556 5.556 0 00-.256 4.672c.288.736.992 1.248 1.792 1.248h.032c1.568-.032 3.52-1.984 4.864-4.096a.763.763 0 01.736-.352c.288 0 .544.16.672.416a6.529 6.529 0 002.176 2.208c6.976 4.64 17.12-4.512 17.568-4.896a.86.86 0 00.256-.576c.032-.224-.064-.448-.192-.608zm28.864.416c-.16-.16-.352-.224-.576-.256a.874.874 0 00-.608.256c-4.832 4.736-11.872 6.368-14.816 5.44-2.496-.8-3.648-3.072-4.16-5.472-.096-.544 0-1.056.288-1.504 3.84-6.528 7.904-15.936 6.495-18.208a1.47 1.47 0 00-1.503-.672c-3.552.448-6.592 7.808-7.2 14.368a25.824 25.824 0 00-.032 4.16c.032.448-.064.896-.32 1.28-.192.32-.416.672-.64.992-2.816 4.16-4.736 5.504-5.536 5.408a.96.96 0 01-.864-.704c-.32-1.632.064-3.296.992-4.64.672-.8 1.664-1.696 2.624-1.504.544.16.992.576 1.216 1.088.096.448.512.768.96.704a.84.84 0 00.704-.96 3.456 3.456 0 00-2.336-2.4c-.992-.32-2.592-.192-4.448 1.984-1.025 1.184-2.049 4.32-1.281 6.336.32.96 1.185 1.632 2.177 1.76h.32c1.696 0 3.84-1.824 6.368-5.44a.517.517 0 01.48-.192c.192 0 .352.128.416.288a7.484 7.484 0 004.768 4.928c3.776 1.184 11.456-.928 16.512-5.856.32-.32.32-.832 0-1.184zm-20.384-5.888c.512-5.856 2.848-11.008 4.832-12.48a.535.535 0 01.576 0c.16.096.256.288.256.48-.288 2.432-2.016 6.816-5.216 12.512-.512.832-.512.064-.448-.512zm42.565 4.128a.771.771 0 00-.576-.224c-.224 0-.448.064-.608.224-3.84 3.84-9.28 5.6-14.624 4.704-.416-.096-.704-.48-.64-.896.256-1.536.128-3.104-.768-3.616-.576-.32-1.44-.352-2.464 1.376a2.63 2.63 0 00-.384 1.952c.16.672.576 1.28 1.152 1.632.352.288-.064.768-.288.992-.608.736-1.664.864-2.4.288a1.852 1.852 0 01-.992-2.368c.416-1.696 2.08-3.168 2.688-3.168a.847.847 0 00.832-.832c.032-.448-.352-.832-.8-.864h-.032c-1.6 0-3.745 2.176-4.321 4.448a3.51 3.51 0 001.825 4.256c.608.352 1.28.512 1.984.544a3.656 3.656 0 003.168-2.176.355.355 0 01.352-.128c4.064 1.216 11.488.448 16.896-4.928a.874.874 0 00.256-.608.874.874 0 00-.256-.608zm-18.112 3.648a.895.895 0 01-.128-1.216c.096-.16.16-.256.224-.352.032.512 0 1.056-.096 1.568zM212.175.912a.92.92 0 00-.64-.16.954.954 0 00-.544.384 184.706 184.706 0 00-16.896 30.176.918.918 0 00.064.864c.192.224.48.384.8.32a.847.847 0 00.672-.512 182.989 182.989 0 0116.768-29.92c.128-.192.16-.416.128-.64-.064-.224-.192-.416-.352-.512zm-17.889 33.632a6.932 6.932 0 00-2.463 2.144c-.288.352-.224.896.16 1.152a.828.828 0 001.184-.16 5.353 5.353 0 011.792-1.6c.448-.16.64-.672.448-1.088a.902.902 0 00-1.121-.448z" fill="#78E08F"/></svg>

<svg width="213" height="53" viewBox="0 0 213 53" fill="none" xmlns="http://www.w3.org/2000/svg">
<path d="M25.328 28.912C25.168 28.752 24.976 28.688 24.752 28.688C24.528 28.688 24.304 28.752 24.144 28.912C20.304 32.752 14.864 34.512 9.52 33.616C9.104 33.52 8.816 33.136 8.88 32.72C9.136 31.184 9.008 29.616 8.112 29.104C7.536 28.784 6.672 28.752 5.648 30.48C5.264 31.056 5.136 31.76 5.264 32.432C5.424 33.104 5.84 33.712 6.416 34.064C6.768 34.352 6.352 34.832 6.128 35.056C5.52 35.792 4.464 35.92 3.728 35.344C2.8 34.928 2.384 33.904 2.736 32.976C3.152 31.28 4.816 29.808 5.424 29.808C5.872 29.808 6.256 29.424 6.256 28.976C6.288 28.528 5.904 28.144 5.456 28.112H5.424C3.824 28.112 1.68 30.288 1.104 32.56C0.56 34.224 1.328 36.048 2.928 36.816C3.536 37.168 4.208 37.328 4.912 37.36C6.288 37.296 7.504 36.464 8.08 35.184C8.144 35.088 8.304 35.024 8.432 35.056C12.496 36.272 19.92 35.504 25.328 30.128C25.488 29.968 25.584 29.744 25.584 29.52C25.584 29.296 25.488 29.072 25.328 28.912ZM7.216 32.56C6.864 32.24 6.8 31.728 7.088 31.344C7.184 31.184 7.248 31.088 7.312 30.992C7.344 31.504 7.312 32.048 7.216 32.56ZM48.413 30C48.253 29.84 48.029 29.744 47.805 29.744C47.581 29.744 47.389 29.808 47.229 29.968C42.493 34.512 35.581 32.976 30.941 30.384C30.845 30.032 30.685 29.712 30.461 29.424C29.853 28.72 28.861 28.464 28.029 28.848C27.741 28.944 27.517 29.2 27.485 29.52C27.421 29.808 27.549 30.128 27.805 30.32C28.061 30.512 28.349 30.736 28.669 30.928C29.213 31.28 29.501 31.888 29.405 32.528C29.277 33.36 29.021 34.16 28.573 34.896C28.349 35.312 28.029 35.664 27.645 35.984C27.133 36.368 26.461 36.464 25.853 36.208C25.245 35.984 24.829 35.44 24.701 34.8C24.573 33.872 24.573 32.912 24.669 31.952C24.701 31.952 24.733 31.92 24.765 31.888C27.581 29.392 36.829 15.184 35.101 11.536C34.685 10.704 33.757 10.288 32.861 10.512C29.469 11.056 24.349 23.152 23.229 30.128C22.525 34.416 23.069 37.072 24.861 38.064L25.181 38.16C25.469 38.224 25.757 38.256 26.045 38.256C27.709 38.192 29.245 37.264 30.013 35.76C30.397 35.152 30.685 34.448 30.877 33.744C30.941 33.424 31.197 33.136 31.485 33.008C31.805 32.848 32.157 32.848 32.445 32.976C37.405 35.056 43.741 35.632 48.381 31.184C48.541 31.024 48.637 30.8 48.637 30.608C48.637 30.384 48.573 30.16 48.413 30ZM33.117 12.176C33.181 12.176 33.277 12.176 33.341 12.176C33.533 12.176 33.565 12.24 33.597 12.24C33.885 12.848 33.469 15.44 30.205 21.296C28.893 23.6 27.453 25.808 25.885 27.984C25.821 28.08 25.693 28.112 25.565 28.048C25.469 27.984 25.405 27.856 25.437 27.76C27.261 20.368 31.485 12.432 33.117 12.176ZM74.834 29.584C74.674 29.424 74.482 29.328 74.258 29.328C74.034 29.328 73.81 29.424 73.65 29.584C68.114 34.992 58.29 36.144 56.178 34.896C54.738 34.064 54.898 33.072 55.922 31.088C56.402 30.128 56.946 29.008 56.018 28.336C55.154 27.696 54.322 28.112 53.586 28.496C52.53 29.104 51.346 29.424 50.098 29.424C49.81 29.424 49.554 28.912 49.618 28.72C51.41 24.784 50.61 24.048 50.322 23.76C49.842 23.28 49.106 23.312 48.21 23.856C46.738 24.912 46.098 26.8 46.61 28.56C46.738 29.04 46.962 29.488 47.282 29.872C47.25 30.224 47.41 30.544 47.73 30.704C47.922 30.8 48.146 30.8 48.37 30.736C48.914 30.992 49.522 31.12 50.13 31.12C51.442 31.152 52.722 30.864 53.874 30.224C54.322 30 54.482 30.192 54.418 30.32C53.65 31.824 52.274 34.576 55.346 36.368C56.434 36.88 57.65 37.104 58.866 37.008C63.346 37.008 70.386 35.088 74.802 30.768C74.962 30.64 75.058 30.416 75.058 30.192C75.09 29.968 74.994 29.744 74.834 29.584ZM48.178 27.824C47.986 26.896 48.306 25.936 49.042 25.328C48.818 26.192 48.53 27.024 48.178 27.856V27.824ZM94.236 29.36C93.884 29.04 93.372 29.04 93.052 29.392C92.924 29.488 82.556 40.048 75.676 35.024C73.564 33.488 75.612 29.488 75.644 29.456C75.836 29.04 75.676 28.56 75.26 28.336C74.844 28.144 74.364 28.272 74.14 28.688C74.012 28.88 71.42 33.968 74.684 36.368C76.188 37.488 78.044 38.096 79.932 38.064C86.844 38.064 93.852 30.928 94.236 30.544C94.396 30.384 94.492 30.192 94.492 29.968C94.46 29.744 94.396 29.52 94.236 29.36ZM73.788 26.832C73.916 26.832 74.044 26.8 74.172 26.736C74.94 26.352 75.612 25.84 76.22 25.232C76.54 24.88 76.508 24.368 76.188 24.048C75.836 23.728 75.324 23.728 75.004 24.08C74.524 24.56 73.98 24.944 73.372 25.264C73.052 25.424 72.86 25.84 72.956 26.192C73.052 26.576 73.404 26.832 73.788 26.832ZM115.428 29.584C115.076 29.264 114.532 29.296 114.244 29.648C111.716 32.272 107.62 32.528 104.804 30.256C104.132 29.776 103.204 29.808 102.596 30.384C102.244 30.704 101.86 31.056 101.476 31.472C100.26 32.848 100.036 31.696 100.036 30.928C100.036 30.256 99.9083 29.552 99.6843 28.912C99.5563 28.592 99.2363 28.368 98.8843 28.368C98.5323 28.4 98.2443 28.592 98.1163 28.944C97.2203 31.44 95.3003 35.088 93.9563 35.344C93.8603 35.376 93.6043 35.408 93.2203 34.992C93.0282 34.16 93.1562 33.264 93.5723 32.496C94.5323 29.904 96.9003 28.08 99.6523 27.824C100.132 27.792 100.484 27.376 100.452 26.928C100.42 26.448 100.004 26.096 99.5563 26.128C96.1323 26.448 93.1883 28.688 91.9722 31.92C91.4282 33.328 91.1082 35.184 91.9722 36.112C92.5482 36.816 93.4123 37.136 94.2763 36.976C95.8763 36.656 97.3163 34.544 98.3403 32.624C98.2763 33.392 98.1803 34.256 98.0523 35.152C98.0203 35.344 97.9563 35.504 97.8602 35.632C94.1163 40.368 90.7242 46.096 90.6602 49.712C90.5642 50.672 90.9162 51.632 91.5562 52.336C91.8762 52.656 92.2602 52.816 92.6762 52.816C93.0282 52.816 93.3803 52.72 93.6683 52.528C95.7803 51.12 98.4683 42.896 99.5243 36.368C99.5563 36.24 99.6203 36.112 99.7163 35.984C100.836 34.608 102.02 33.296 103.268 32.048C103.556 31.76 104.004 31.728 104.324 31.952C107.844 34.32 112.516 33.808 115.46 30.768C115.748 30.416 115.748 29.904 115.428 29.584ZM94.1163 49.136C93.3803 50.608 93.1242 51.248 92.7402 51.12C92.3562 51.024 92.3242 50.384 92.3562 49.744C92.4202 47.28 96.7083 38.928 97.3163 39.184C97.9243 39.44 95.3323 46.608 94.1163 49.136ZM140.221 30.256C139.901 29.904 139.357 29.872 139.005 30.192C138.909 30.288 129.405 38.832 123.517 34.96C121.181 33.424 120.605 29.712 120.605 29.68C120.573 29.296 120.285 29.008 119.901 28.944C119.549 28.912 119.165 29.104 119.005 29.424C117.501 32.752 114.845 36.976 114.109 36.496C114.045 36.496 113.917 36.368 113.821 36.144C113.437 35.088 113.565 33.936 114.109 32.944C115.325 30.448 117.565 28.656 120.253 27.984C120.541 27.92 120.765 27.696 120.861 27.408C120.957 27.12 120.861 26.8 120.669 26.576C120.445 26.384 120.157 26.288 119.869 26.352C116.669 27.12 114.013 29.296 112.573 32.24C111.805 33.68 111.709 35.408 112.317 36.912C112.605 37.648 113.309 38.16 114.109 38.16H114.141C115.709 38.128 117.661 36.176 119.005 34.064C119.165 33.808 119.453 33.68 119.741 33.712C120.029 33.712 120.285 33.872 120.413 34.128C120.957 35.024 121.693 35.792 122.589 36.336C129.565 40.976 139.709 31.824 140.157 31.44C140.317 31.28 140.413 31.056 140.413 30.864C140.445 30.64 140.349 30.416 140.221 30.256ZM169.085 30.672C168.925 30.512 168.733 30.448 168.509 30.416C168.285 30.416 168.061 30.512 167.901 30.672C163.069 35.408 156.029 37.04 153.085 36.112C150.589 35.312 149.437 33.04 148.925 30.64C148.829 30.096 148.925 29.584 149.213 29.136C153.053 22.608 157.117 13.2 155.708 10.928C155.389 10.416 154.812 10.16 154.205 10.256C150.653 10.704 147.613 18.064 147.005 24.624C146.877 26.032 146.877 27.408 146.973 28.784C147.005 29.232 146.909 29.68 146.653 30.064C146.461 30.384 146.237 30.736 146.013 31.056C143.197 35.216 141.277 36.56 140.477 36.464C140.061 36.432 139.709 36.144 139.613 35.76C139.293 34.128 139.677 32.464 140.605 31.12C141.277 30.32 142.269 29.424 143.229 29.616C143.773 29.776 144.221 30.192 144.445 30.704C144.541 31.152 144.957 31.472 145.405 31.408C145.853 31.344 146.173 30.928 146.109 30.448C145.789 29.296 144.925 28.4 143.773 28.048C142.781 27.728 141.181 27.856 139.325 30.032C138.3 31.216 137.276 34.352 138.044 36.368C138.364 37.328 139.229 38 140.221 38.128C140.317 38.128 140.445 38.128 140.541 38.128C142.237 38.128 144.381 36.304 146.909 32.688C147.005 32.56 147.197 32.464 147.389 32.496C147.581 32.496 147.741 32.624 147.805 32.784C148.509 35.12 150.301 36.944 152.573 37.712C156.349 38.896 164.029 36.784 169.085 31.856C169.405 31.536 169.405 31.024 169.085 30.672ZM148.701 24.784C149.213 18.928 151.549 13.776 153.533 12.304C153.693 12.208 153.917 12.176 154.109 12.304C154.269 12.4 154.365 12.592 154.365 12.784C154.077 15.216 152.349 19.6 149.149 25.296C148.637 26.128 148.637 25.36 148.701 24.784ZM191.266 28.912C191.106 28.752 190.914 28.688 190.69 28.688C190.466 28.688 190.242 28.752 190.082 28.912C186.242 32.752 180.802 34.512 175.458 33.616C175.042 33.52 174.754 33.136 174.818 32.72C175.074 31.184 174.946 29.616 174.05 29.104C173.474 28.784 172.61 28.752 171.586 30.48C171.202 31.056 171.074 31.76 171.202 32.432C171.362 33.104 171.778 33.712 172.354 34.064C172.706 34.352 172.29 34.832 172.066 35.056C171.458 35.792 170.402 35.92 169.666 35.344C168.738 34.928 168.322 33.904 168.674 32.976C169.09 31.28 170.754 29.808 171.362 29.808C171.81 29.808 172.194 29.424 172.194 28.976C172.226 28.528 171.842 28.144 171.394 28.112H171.362C169.762 28.112 167.617 30.288 167.041 32.56C166.497 34.224 167.265 36.048 168.866 36.816C169.474 37.168 170.146 37.328 170.85 37.36C172.226 37.296 173.442 36.464 174.018 35.184C174.082 35.088 174.242 35.024 174.37 35.056C178.434 36.272 185.858 35.504 191.266 30.128C191.426 29.968 191.522 29.744 191.522 29.52C191.522 29.296 191.426 29.072 191.266 28.912ZM173.154 32.56C172.802 32.24 172.738 31.728 173.026 31.344C173.122 31.184 173.186 31.088 173.25 30.992C173.282 31.504 173.25 32.048 173.154 32.56ZM212.175 0.911999C211.983 0.783997 211.759 0.719997 211.535 0.751999C211.311 0.815998 211.119 0.943996 210.991 1.136C204.431 10.64 198.767 20.752 194.095 31.312C193.967 31.6 193.999 31.92 194.159 32.176C194.351 32.4 194.639 32.56 194.959 32.496C195.247 32.464 195.503 32.272 195.631 31.984C200.271 21.52 205.871 11.504 212.399 2.064C212.527 1.872 212.559 1.648 212.527 1.424C212.463 1.2 212.335 1.008 212.175 0.911999ZM194.286 34.544C193.295 35.056 192.463 35.792 191.823 36.688C191.535 37.04 191.599 37.584 191.983 37.84C192.367 38.128 192.879 38.064 193.167 37.68C193.647 37.008 194.255 36.464 194.959 36.08C195.407 35.92 195.599 35.408 195.407 34.992C195.215 34.576 194.703 34.384 194.286 34.544Z" fill="#78E08F"/>
</svg>
